X:57
T:Megérett a fekete szőlő
M:4/4
L:1/4
K:D
D D A,2 | FF D2 |
A>A B<A | E2 G2 |
FADF | E/D/C/B,/ B,<A, |
E>E B,<C | D2 D z |

